icons/actions/16/page-4sides.svg

<svg xmlns="http://www.w3.org/2000/svg" viewBox="0 0 16 16">
  <defs id="defs3051">
    <style type="text/css" id="current-color-scheme">
      .ColorScheme-Text {
        color:#4d4d4d;
      }
      </style>
  </defs>
 <path 
     style="fill:currentColor;fill-opacity:1;stroke:none" 
     d="m2 2v12h13v-12zm1 1h2v10h-2zm3 0h2v10h-2zm3 0h2v10h-2zm3 0h2v10h-2z"
     class="ColorScheme-Text"/>
</svg>

<?xml version="1.0"?>
<!-- Created with Inkscape (http://www.inkscape.org/) -->
<svg xmlns:dc="http://purl.org/dc/elements/1.1/" xmlns:cc="http://creativecommons.org/ns#" xmlns:rdf="http://www.w3.org/1999/02/22-rdf-syntax-ns#" xmlns:svg="http://www.w3.org/2000/svg" xmlns="http://www.w3.org/2000/svg" xmlns:sodipodi="http://sodipodi.sourceforge.net/DTD/sodipodi-0.dtd" xmlns:inkscape="http://www.inkscape.org/namespaces/inkscape" width="16" height="16" id="svg3049" version="1.1" inkscape:version="0.91 r13725" sodipodi:docname="page-4sides.svg" inkscape:export-filename="/home/uri/.kde/share/icons/NITRUX-KDE/16x16/actions/view-right-new.png" inkscape:export-xdpi="30" inkscape:export-ydpi="30">
  <defs id="defs3051">
    <style type="text/css" id="current-color-scheme">
      .ColorScheme-Text {
        color:#4d4d4d;
      }
      .ColorScheme-Background {
        color:#eff0f1;
      }
      .ColorScheme-Highlight {
        color:#3daee9;
      }
      .ColorScheme-ViewText {
        color:#31363b;
      }
      .ColorScheme-ViewBackground {
        color:#fcfcfc;
      }
      .ColorScheme-ViewHover {
        color:#93cee9;
      }
      .ColorScheme-ViewFocus{
        color:#3daee9;
      }
      .ColorScheme-ButtonText {
        color:#31363b;
      }
      .ColorScheme-ButtonBackground {
        color:#eff0f1;
      }
      .ColorScheme-ButtonHover {
        color:#93cee9;
      }
      .ColorScheme-ButtonFocus{
        color:#3daee9;
      }
      </style>
  </defs>
  <sodipodi:namedview id="base" pagecolor="#ffffff" bordercolor="#666666" borderopacity="1.0" inkscape:pageopacity="0.0" inkscape:pageshadow="2" inkscape:zoom="32.000001" inkscape:cx="10.07007" inkscape:cy="8.2640279" inkscape:document-units="px" inkscape:current-layer="layer1" showgrid="true" fit-margin-top="0" fit-margin-left="0" fit-margin-right="0" fit-margin-bottom="0" inkscape:window-width="1920" inkscape:window-height="957" inkscape:window-x="-4" inkscape:window-y="0" inkscape:window-maximized="1" inkscape:showpageshadow="false" borderlayer="true" inkscape:snap-bbox="true" inkscape:snap-global="true" inkscape:object-nodes="true">
    <inkscape:grid type="xygrid" id="grid4085"/>
    <sodipodi:guide position="2.0000044,14.00003" orientation="12,0" id="guide4075"/>
    <sodipodi:guide position="2.0000044,2.0000296" orientation="0,12" id="guide4077"/>
    <sodipodi:guide position="14.000004,2.0000296" orientation="-12,0" id="guide4079"/>
    <sodipodi:guide position="14.000004,14.00003" orientation="0,-12" id="guide4081"/>
  </sodipodi:namedview>
  <metadata id="metadata3054">
    <rdf:RDF>
      <cc:Work rdf:about="">
        <dc:format>image/svg+xml</dc:format>
        <dc:type rdf:resource="http://purl.org/dc/dcmitype/StillImage"/>
        <dc:title/>
      </cc:Work>
    </rdf:RDF>
  </metadata>
  <g inkscape:label="Capa 1" inkscape:groupmode="layer" id="layer1" transform="translate(-421.71429,-531.79074)">
    <path style="fill:currentColor;fill-opacity:1;fill-rule:evenodd;stroke:none" d="M 2 2 L 2 14 L 15 14 L 15 2 L 2 2 z M 3 3 L 5 3 L 5 13 L 3 13 L 3 3 z M 6 3 L 8 3 L 8 13 L 6 13 L 6 3 z M 9 3 L 11 3 L 11 13 L 9 13 L 9 3 z M 12 3 L 14 3 L 14 13 L 12 13 L 12 3 z " transform="translate(421.71429,531.79074)" id="rect4139" class="ColorScheme-Text"/>
  </g>
</svg>
